!!!COM: Mozart, Wolfgang Amadeus
!!!CDT: 1756/01/27/-1791/12/05/
!!!CNT: German
!!!OTL: Piano Sonata No. 15 in C major
!!!ONB: Sonata No. 16 in NMA
!!!SCT1: K 545
!!!OMV: 2
!!!OMD: Andante
!!!ODT: 1788///
**kern	**kern	**dynam
*staff2	*staff1	*staff1/2
*Ipiano	*Ipiano	*Ipiano
*>[A,A,B,B,C]	*>[A,A,B,B,C]	*>[A,A,B,B,C]
*>norep[A,B,C]	*>norep[A,B,C]	*>norep[A,B,C]
*>A	*>A	*>A
*clefF4	*clefG2	*clefG2
*k[f#]	*k[f#]	*k[f#]
*G:	*G:	*G:
*M3/4	*M3/4	*M3/4
*MM80	*MM80	*MM80
=1-	=1-	=1-
!LO:TX:i:t=legato	!LO:TX:i:t=dolce	!
16GLL	(2b	p
16d	.	.
16B	.	.
16dJJ	.	.
16GLL	.	.
16d	.	.
16B	.	.
16dJJ	.	.
16ALL	16ddLL	.
16d	16cc	.
16c	16b	.
16dJJ	16ccJJ	.
=2	=2	=2
.	.	.
16GLL	8.ddL	.
16d	.	.
16B	.	.
16dJJ	16bJk	.
16GLL	4g)	.
16d	.	.
16B	.	.
16dJJ	.	.
16GLL	4r	.
16d	.	.
16B	.	.
16dJJ	.	.
=3	=3	=3
16GLL	(4.gg	.
16e	.	.
16c	.	.
16eJJ	.	.
16GLL	.	.
16e	.	.
16c	16aaLL	.
16eJJ	16ggJJ	.
16GLL	16ff#LL	.
16c#	16ee	.
16A#	16dd	.
16c#JJ	16cc#JJ)	.
=4	=4	=4
16GLL	(8.ddL	.
16d	.	.
16B	.	.
16dJJ	16bJk)	.
16GLL	4g	.
16d	.	.
16B	.	.
16dJJ	.	.
16GLL	4r	.
16d	.	.
16B	.	.
16dJJ	.	.
=5	=5	=5
16ALL	(8.ccL>	.
16d	.	.
16c	.	.
16dJJ	16aJk)	.
16ALL	8f#'L	.
16d	.	.
16c	8a'J	.
16dJJ	.	.
16ALL	8b'L	.
16d	.	.
16c	8cc'J	.
16dJJ	.	.
=6	=6	=6
16GLL	(8.ddL	.
16d	.	.
16B	.	.
16dJJ	16bJk	.
16ELL	4gg)	.
16B	.	.
16G	.	.
16BJJ	.	.
16BBLL	4r	.
16G	.	.
16D	.	.
16GJJ	.	.
=7	=7	=7
*^	*	*
4E	2C	(16aaLL	.
.	.	16gg	.
.	.	16ff#	.
.	.	16ggJJ	.
2G	.	16ff#LL	.
.	.	16ee	.
.	.	16dd#	.
.	.	16eeJJ	.
.	4E	16ddnLL	.
.	.	16cc	.
.	.	16b	.
.	.	16ccJJ)	.
=8	=8	=8	=8
(4G	2D	(8.bL	.
.	.	32ccLL	.
.	.	(32bJJJ)	.
4F#)	.	8aL	.
.	.	8dd	<
4r	4r	8cc#	.
.	.	8ccnJ)	[
*v	*v	*	*
=9	=9	=9
!LO:TX:i:t=legato	!	!
16GLL	([4b	f
16d	.	.
16B	.	.
16dJJ	.	.
16GLL	16bLL]	.
16d	16g	.
16B	16b	.
16dJJ	16ddJJ	.
16ALL	16ccLL	.
16d	16a	.
16c	16cc	.
16dJJ	16eeJJ	.
=10	=10	=10
16GLL	8.ddL	.
16d	.	.
16B	.	.
16dJJ	16bJk	.
16GLL	16gLL)	.
16d	16g'	.
16B	16a'	.
16dJJ	16b'JJ	.
16GLL	16cc'LL	.
16d	16dd'	.
16B	16ee'	.
16dJJ	16ff#'JJ	.
=11	=11	=11
16GLL	(16ggLL	.
16e	16ff#	.
16c	16gg	.
16eJJ	16ff#JJ	.
16GLL	16aaLL	.
16e	16gg	.
16c	16ff#	.
16eJJ	16ggJJ	.
16GLL	16ff#LL	.
16c#	16ee	.
16A#	16dd	.
16c#JJ	16cc#JJ	.
=12	=12	=12
16GLL	16ddLL	.
16d	16b	.
16B	16dd	.
16dJJ	16bJJ	.
16GLL	4g)	.
16d	.	.
16B	.	.
16dJJ	.	.
16GLL	4r	.
16d	.	.
16B	.	.
16dJJ	.	.
=13	=13	=13
16ALL	(16ccLL>	.
16d	16a	.
16c	16cc	.
16dJJ	16aJJ	.
16ALL	16f#'LL)	.
16d	(>16a	.
16c	16g#	.
16dJJ	16aJJ	.
16ALL	16a#LL>	.
16d	16b	.
16c	16cc	.
16dJJ	16cc#JJ	.
=14	=14	=14
16GLL	16ddLL	.
16d	16b	.
16B	16dd	.
16dJJ	16bJJ	.
16ELL	4gg)	.
16B	.	.
16G	.	.
16BJJ	.	.
16BBLL	16r	.
16G	(16bbLL	.
16D	16ff#	.
16GJJ	16ggJJ	.
=15	=15	=15
*	*^	*
16CLL	16dd#LL	4ryy	.
16A	16ee	.	.
16E	16cc	.	.
16AJJ	16aJJ	.	.
!	!LO:TX:i:t=dim.	!	!
16DLL	8.gL)	4ryy	.
16B	.	.	.
16G	.	.	.
16BJJ	(>16gJk	.	.
16DLL	16bLL	4f#	.
16c	16a	.	.
16A	16g	.	.
16cJJ	16aJJ)	.	.
*	*v	*v	*
=16	=16	=16
*^	*	*
(4c	2G	4f# (4a	>
4B)	.	4g)	.
4r	4r	4r	]
*v	*v	*	*
=17:|!:	=17:|!:	=17:|!:
*>B	*>B	*>B
*clefG2	*	*
!	!LO:TX:i:t=dolce	!
16dLL	[4dd	.
16a	.	.
16f#	.	.
16aJJ	.	.
16dLL	(16ddLL]	.
16a	16cc#	.
16f#	16ee	.
16aJJ	16ddJJ	.
16dLL	16ggLL	.
16a	16ff#	.
16f#	16ee	.
16aJJ	16ddJJ	.
=18	=18	=18
.	.	.
16eLL	8.cc#L	.
16a	.	.
16g	.	.
16aJJ	16ddJk	.
16eLL	4ee)	.
16a	.	.
16g	.	.
16aJJ	.	.
16eLL	4r	.
16a	.	.
16g	.	.
16aJJ	.	.
=19	=19	=19
16c#LL	[4ee	.
16a	.	.
16g	.	.
16aJJ	.	.
16c#LL	(16eeLL]	.
16a	16dd#	.
16g	16ff#	.
16aJJ	16eeJJ	.
16c#LL	16aaLL	.
16a	16gg	.
16g	16ff#	.
16aJJ	16eeJJ	.
=20	=20	=20
16dLL	8.ddnL	.
16a	.	.
16f#	.	.
16aJJ	16eeJk	.
16c#LL	4ff#)	.
16a	.	.
16d	.	.
16aJJ	.	.
16BLL	4r	.
16g	.	.
16d	.	.
16gJJ	.	.
*clefF4	*	*
=21	=21	=21
16ALL	([4ff#	.
16f#	.	.
16d	.	.
16f#JJ	.	.
16GLL	16ff#LL]	.
16e	16ee	.
16c#	16gg	.
16eJJ	16ff#JJ	.
16F#LL	16bbLL	.
16d	16aa	.
16A	16gg	.
16dJJ	16ff#JJ	.
=22	=22	=22
16BLL	[4ee	.
16g	.	.
16e	.	.
16gJJ	.	.
16ALL	16eeLL]	.
16f#	16dd#	.
16d#	16ff#	.
16f#JJ	16eeJJ	.
16GLL	16aaLL	.
16e	16gg	.
16B	16ff#	.
16eJJ	16eeJJ)	.
*clefG2	*	*
=23	=23	=23
*	*^	*
16ALL	4ryy	(16eeLL	.
16f#	.	16ddnJ)	.
16d	.	([8ddJ	.
16f#JJ	.	.	.
16ALL	4ryy	16ddLL]	.
16f#	.	16a	.
16d	.	16dd	.
16f#JJ	.	16ff#JJ)	.
16ALL	(16ff#LL	4cc#	.
16g	16ee	.	.
16e	16dd	.	.
16gJJ	16eeJJ)	.	.
*	*v	*v	*
=24	=24	=24
*^	*	*
(4g	2d	4cc# (4ee	fp
4f#)	.	16ddLL)	.
.	.	16dd#	.
.	.	16ee	.
.	.	16dd#JJ	.
4r	4r	16ff#LL	.
.	.	16ee	.
.	.	16ddn	.
.	.	16ccnJJ	.
*v	*v	*	*
*clefF4	*	*
=25	=25	=25
16GLL	([4b	.
16d	.	.
16B	.	.
16dJJ	.	.
16GLL	16bLL]	.
16d	16g	.
16B	16b	.
16dJJ	16ddJJ	.
16ALL	16ccLL	.
16d	16a	.
16c	16cc	.
16dJJ	16eeJJ	.
=26	=26	=26
16GLL	8.ddL	.
16d	.	.
16B	.	.
16dJJ	16bJk	.
16GLL	16g'LL)	.
16d	16g'	.
16B	16a'	.
16dJJ	16b'JJ	.
16GLL	16cc'LL	.
16d	16dd'	.
16B	16ee'	.
16dJJ	16ff#'JJ	.
=27	=27	=27
16GLL	(16ggLL	.
16e	16ff#	.
16c	16gg	.
16eJJ	16ff#JJ	.
16GLL	16aaLL	.
16e	16gg	.
16c	16ff#	.
16eJJ	16ggJJ	.
16GLL	16ff#LL	.
16c#	16ee	.
16A#	16dd	.
16c#JJ	16cc#JJ	.
=28	=28	=28
16GLL	16ddLL	.
16d	16b	.
16B	16dd	.
16dJJ	16bJJ	.
16GLL	4g)	.
16d	.	.
16B	.	.
16dJJ	.	.
16GLL	4r	.
16d	.	.
16B	.	.
16dJJ	.	.
=29	=29	=29
16ALL	(16ccLL>	.
16d	16a	.
16c	16cc	.
16dJJ	16aJJ	.
16ALL	16f#'LL)	.
16d	(16a	.
16c	16g#	.
16dJJ	16aJJ	.
16ALL	16a#LL	.
16d	16b	.
16c	16cc	.
16dJJ	16cc#JJ	.
=30	=30	=30
16GLL	16ddLL	.
16d	16b	.
16B	16dd	.
16dJJ	16bJJ	.
16ELL	4gg)	.
16B	.	.
16G	.	.
16BJJ	.	.
16BBLL	16r	.
16G	(16bbLL	.
16D	16ff#	.
16GJJ	16ggJJ	.
=31	=31	=31
*	*^	*
16CLL	4ryy	16dd#LL	.
16A	.	16ee	.
16E	.	16cc	.
16AJJ	.	16aJJ	.
16DLL	8.gL)	4ryy	.
16B	.	.	.
16G	.	.	.
16BJJ	(>16gJk	.	.
16DLL	16bLL	4f#	.
16c	16a	.	.
16A	16g	.	.
16cJJ	16aJJ)	.	.
*	*v	*v	*
=32	=32	=32
*^	*	*
(4c	2G	4f# (>4a	fp
4B)	.	4g)	.
4r	4r	4r	.
*v	*v	*	*
=33:|!	=33:|!	=33:|!
*>C	*>C	*>C
16GLL	([4b-	p
16d	.	.
16B-	.	.
16dJJ	.	.
16GLL	16b-LL]	.
16d	16a	.
16B-	16cc	.
16dJJ	16b-JJ)	.
16ALL	(<16b-LL	.
16d	16a	.
16c	16g	.
16dJJ	16f#JJ	.
=34	=34	=34
16GLL	8.gL	.
16d	.	.
16B-	.	.
16dJJ	16b-Jk	.
16GLL	4dd)	.
16d	.	.
16B-	.	.
16dJJ	.	.
16GLL	4r	.
16d	.	.
16B-	.	.
16dJJ	.	.
=35	=35	=35
16F#LL	([4dd	.
16d	.	.
16A	.	.
16dJJ	.	.
16F#LL	16ddLL]	.
16d	16cc#	.
16A	16ee-	.
16dJJ	16ddJJ)	.
16DLL	(16ddLL	.
16d	16ccn	.
16F#	16b-	.
16dJJ	16aJJ	.
=36	=36	=36
16GLL	8.b-L	.
16d	.	.
16B-	.	.
16dJJ	16ddJk	.
16GLL	4gg)	<
16d	.	.
16B-	.	.
16dJJ	.	.
16GLL	4r	.
16e-	.	.
16B-	.	.
16e-JJ	.	[
=37	=37	=37
16ALL	([4ffn	f
16fn	.	.
16c	.	.
16fJJ	.	.
16ALL	16ffLL]	.
16f	16aa	.
16c	16ccc	.
16fJJ	16bb-JJ	.
16ALL	16aaLL	.
16f	16gg	.
16c	16ff	.
16fJJ	16ee-JJ	.
=38	=38	=38
16B-LL	[4dd	.
16fn	.	.
16d	.	.
16fJJ	.	.
16GLL	16ddLL]	.
16d	16gg	.
16B-	16bb-	.
16dJJ	16aaJJ	.
16DLL	16ggLL	.
16B-	16ffn	.
16Fn	16ee-	.
16B-JJ	16ddJJ	.
=39	=39	=39
16E-LL	16bnLL	.
16c	16cc	.
16G	16ee-	.
16cJJ	16ggJJ	.
16FnLL	8.b-L)	.
16d	.	.
16B-	.	.
16dJJ	(16b-Jk	.
16FLL	16ddLL	.
16e-	16cc	.
16c	16b-	.
16e-JJ	16ccJJ)	.
=40	=40	=40
*^	*	*
4e-	2B-	((<4a 4cc	.
4d	.	16b-LL)	.
.	.	16a	.
.	.	16cc	.
.	.	16b-JJ	.
4r	4r	16ddLL	.
.	.	16cc	.
.	.	16ee-	.
.	.	16ddJJ)	.
*v	*v	*	*
=41	=41	=41
16A-LL	[4ffn	.
16fn	.	.
16c	.	.
16fJJ	.	.
16GLL	(16ffLL]	.
16d	16aa-	.
16Bn	16gg	.
16dJJ	16ffJJ	.
16FnLL	16ee-LL	.
16d	16dd	.
16G	16cc	.
16dJJ	16bnJJ)	.
=42	=42	=42
16E-LL	(8.ccL	.
16c	.	.
16G	.	.
16cJJ	16ee-Jk)	.
16DLL	4gg	.
16B	.	.
16Fn	.	.
16BJJ	.	.
16CLL	4r	.
16c	.	.
16E-	.	.
16cJJ	.	.
=43	=43	=43
16C#LL	[4gg	.
16B-	.	.
16En	.	.
16B-JJ	.	.
16DLL	(16ggLL]	.
16B-	16ff#	.
16G	16aan	.
16B-JJ	16ggJJ	.
16E-LL	16bb-LL	.
16B-	16cc#	.
16G	16bb-	.
16B-JJ	16cc#JJ)	.
=44	=44	=44
16DLL	(4cc#	.
16B-	.	.
16G	.	.
16B-JJ	.	.
16DLL	4dd)	.
16A	.	.
16F#X	.	.
16AJJ	.	.
16DLL	4r	.
16A	.	.
16F#	.	.
16AJJ	.	.
=45	=45	=45
16CnLL	[4ee-	.
16A	.	.
16F#X	.	.
16AJJ	.	.
16CLL	(16ee-LL]	.
16A	16cc	.
16F#	16aa	.
16AJJ	16ff#JJ	.
16CLL	16cccLL	.
16A	16aa	.
16F#	16eee-	.
16AJJ	16ff#JJ	.
=46	=46	=46
16BB-LL	[4ddd)	.
16G	.	.
16D	.	.
16GJJ	.	.
16BB-LL	(16dddLL]	.
16G	16aa	.
16D	16bb-	.
16GJJ	16ff#JJ	.
16BB-LL	16ggLL	.
16G	16cc#	.
16D	16dd	.
16GJJ	16b-JJ)	.
=47	=47	=47
16CLL	(16b-LL	.
16A	16a	.
16E-	16cc	.
16AJJ	16ee-JJ)	.
16DLL	8.gL	.
16B-	.	.
16G	.	.
16B-JJ	(16gJk	.
16DLL	16b-LL	.
16c	16a	.
16A	16g	.
16cJJ	16aJJ)	.
=48	=48	=48
*^	*	*
(4c	2G	(4f# 4a	>
4B-)	.	16gLL)	]
.	.	(16f#	.
.	.	16g	.
.	.	16g#JJ	.
4r	4r	16aLL	.
.	.	16g#	.
.	.	16a	.
.	.	16a#JJ)	.
*v	*v	*	*
=49	=49	=49
!LO:TX:i:t=legato	!	!
16GLL	(2bn	p
16d	.	.
16B	.	.
16dJJ	.	.
16GLL	.	.
16d	.	.
16B	.	.
16dJJ	.	.
16ALL	16ddLL	.
16d	16cc	.
16c	16b	.
16dJJ	16ccJJ	.
=50	=50	=50
16GLL	8.ddL	.
16d	.	.
16B	.	.
16dJJ	16bJk	.
16GLL	4g)	.
16d	.	.
16B	.	.
16dJJ	.	.
16GLL	4r	.
16d	.	.
16B	.	.
16dJJ	.	.
=51	=51	=51
16GLL	(4.gg	.
16e	.	.
16c	.	.
16eJJ	.	.
16GLL	.	.
16e	.	.
16c	16aaLL	.
16eJJ	16ggJJ	.
16GLL	16ff#LL	.
16c#	16ee	.
16A#	16dd	.
16c#JJ	16cc#JJ	.
=52	=52	=52
16GLL	8.ddL	.
16d	.	.
16B	.	.
16dJJ	16bJk	.
16GLL	4g)	.
16d	.	.
16B	.	.
16dJJ	.	.
16GLL	4r	.
16d	.	.
16B	.	.
16dJJ	.	.
=53	=53	=53
16ALL	(8.ccL>	.
16d	.	.
16c	.	.
16dJJ	16aJk	.
16ALL	8f#L)	.
16d	.	.
16c	8a'J	.
16dJJ	.	.
16ALL	8b'L	.
16d	.	.
16c	8cc'J	.
16dJJ	.	.
=54	=54	=54
16GLL	(8.ddL	.
16d	.	.
16B	.	.
16dJJ	16bJk	.
16ELL	4gg)	.
16B	.	.
16G	.	.
16BJJ	.	.
16BBLL	4r	.
16G	.	.
16D	.	.
16GJJ	.	.
=55	=55	=55
*^	*	*
4E	2C	(16aaLL	.
.	.	16gg	.
.	.	16ff#	.
.	.	16ggJJ	.
2G	.	16ff#LL	.
.	.	16ee	.
.	.	16dd#	.
.	.	16eeJJ	.
.	4E	16ddnLL	.
.	.	16cc	.
.	.	16b	.
.	.	16ccJJ	.
=56	=56	=56	=56
(4G	2D	8.bL	.
.	.	32ccLL	.
.	.	32bJJJ	.
4F#)	.	8a'L)	.
.	.	(8dd	<
4r	4r	8cc#	.
.	.	8ccnJ	[
*v	*v	*	*
=57	=57	=57
16GLL	([4b)	f
16d	.	.
16B	.	.
16dJJ	.	.
16GLL	16bLL]	.
16d	16g	.
16B	16b	.
16dJJ	16ddJJ	.
16ALL	16ccLL	.
16d	16a	.
16c	16cc	.
16dJJ	16eeJJ	.
=58	=58	=58
16GLL	8.ddL	.
16d	.	.
16B	.	.
16dJJ	16bJk	.
16GLL	16gLL)	.
16d	16g'	.
16B	16a'	.
16dJJ	16b'JJ	.
16GLL	16cc'LL	.
16d	16dd'	.
16B	16ee'	.
16dJJ	16ff#'JJ	.
=59	=59	=59
16GLL	(16ggLL	.
16e	16ff#	.
16c	16gg	.
16eJJ	16ff#JJ	.
16GLL	16aaLL	.
16e	16gg	.
16c	16ff#	.
16eJJ	16ggJJ	.
16GLL	16ff#LL	.
16c#	16ee	.
16A#	16dd	.
16c#JJ	16cc#JJ	.
=60	=60	=60
16GLL	16ddLL	.
16d	16b	.
16B	16dd	.
16dJJ	16bJJ	.
16GLL	4g)	.
16d	.	.
16B	.	.
16dJJ	.	.
16GLL	4r	.
16d	.	.
16B	.	.
16dJJ	.	.
=61	=61	=61
16ALL	(16ccLL>	.
16d	16a	.
16c	16cc	.
16dJJ	16aJJ	.
16ALL	16f#'LL)	.
16d	(16a	.
16c	16g#	.
16dJJ	16aJJ	.
16ALL	16a#LL	.
16d	16b	.
16c	16cc	.
16dJJ	16cc#JJ	.
=62	=62	=62
16GLL	16ddLL	.
16d	16b	.
16B	16dd	.
16dJJ	16bJJ	.
16ELL	4gg)	.
16B	.	.
16G	.	.
16BJJ	.	.
16BBLL	16r	.
16G	(>16bbLL	.
16D	16ff#	.
16GJJ	16ggJJ	.
=63	=63	=63
*	*^	*
16CLL	4ryy	16dd#LL	.
16A	.	16ee	.
16E	.	16cc	.
16AJJ	.	16aJJ	.
16DLL	4ryy	8.gL)	.
16B	.	.	.
16G	.	.	.
16BJJ	.	(>16gJk	.
16DLL	16bLL	4f#	.
16c	16a	.	.
16A	16g	.	.
16cJJ	16aJJ	.	.
*	*v	*v	*
=64	=64	=64
4G 4B	16gLL	<
.	16f#	.
.	16a	.
.	16gJJ	.
4r	16bLL	.
.	16a	.
.	16cc	.
.	16bJJ	.
4r	16ddLL	.
.	16cc	.
.	16ee	[
.	16ddJJ	.
*clefG2	*	*
=65	=65	=65
16ALL	4.ffn	mf
16fn	.	.
16c	.	.
16fJJ	.	.
16ALL	.	.
16f	.	.
16c	16ggLL	.
16fJJ	16aaJJ	.
16BLL	16ggLL	.
16g	16ff	.
16d	16ee	.
16gJJ	16ddJJ	.
=66	=66	=66
16cLL	4dd#	.
16g	.	.
16e	.	.
16gJJ	.	.
16cLL	4ee)	.
16g	.	.
16e	.	.
16gJJ	.	.
16cLL	16r	.
16g	(>16ggLL	.
16e	16ff#X	.
16gJJ	16eeJJ	.
=67	=67	=67
*	*^	*
16BLL	4ryy	16ddLL	.
16d	.	16b	.
16c	.	16a	.
16eJJ	.	16eeJJ	.
*clefF4	*	*	*
!	!	!LO:TX:i:t=dim.	!
16DLL	4ryy	8.gL)	.
16B	.	.	.
16G	.	.	.
16BJJ	.	(>16gJk	.
16DLL	16bLL	4f#	.
16c	16a	.	.
16A	16g	.	.
16cJJ	16aJJ	.	.
*	*v	*v	*
=68	=68	=68
4G 4B	16gLL	<
.	16f#	.
.	16a	.
.	16gJJ	.
4r	16bLL	.
.	16a	.
.	16cc	.
.	16bJJ	.
4r	16ddLL	.
.	16cc	.
.	16ee	.
.	16ddJJ	[
=69	=69	=69
16AALL	4.ffn	f
16Fn	.	.
16C	.	.
16FJJ	.	.
16BBLL	.	.
16G	.	.
16D	16ggLL	.
16GJJ	16aaJJ	.
16GGLL	16ggLL	.
16G	16ff	.
16BB	16ee	.
16GJJ	16ddJJ	.
=70	=70	=70
16CLL	4eez)	.
16G	.	.
16E	.	.
16GJJ	.	.
16CLL	4ff#z	.
16A	.	.
16E-	.	.
16AJJ	.	.
16C#LL	4ggz	.
16B-	.	.
16En	.	.
16B-JJ	.	.
=71	=71	=71
*	*^	*
16DLL	(<4.g	4ryy	.
16Bn	.	.	.
16G	.	.	.
16BJJ	.	.	.
16DLL	.	4ryy	.
16B	.	.	.
16G	32aLLL	.	.
.	32g	.	.
16BJJ	32f#	.	.
.	32gJJJ	.	.
16DLL	8bL	4f#	.
16c	.	.	.
16A	8aJ	.	.
16cJJ	.	.	.
*	*v	*v	*
=72	=72	=72
4G 4B	16gLL	.
.	16d	.
.	16b)	.
.	16b'JJ	.
4r	(16bLL>	.
.	16g	.
.	16dd')	.
.	16dd'JJ	.
8r	(16ddLL>	.
.	16b	.
8D ((8c	16a	f
.	16bJJ)	.
=73	=73	=73
4G 4B))	16gLL	.
.	16d	.
!	!LO:TX:i:t=dim.	!
.	16b)	.
.	16b'JJ	.
4r	(16bLL	.
.	16g	.
.	16dd)	.
.	16dd'JJ	.
8r	(16ddLL	.
.	16b	.
8D ((8c	16a	p
.	16bJJ)	.
=74	=74	=74
8G 8B))	8g	.
8r	8r	.
8GG	8B 8g	.
8r	8r	.
4r	4r	.
==	==	==
*-	*-	*-
!!!RDF**kern: > = above
!!!RDF**kern: < = below
!!!YOR: Alte Mozart-Ausgabe, Band 20, Breitkopf &amp; H&auml;rtel 1877-1883.
!!!YOY: 1878
!!!YEC: 2018 Craig Stuart Sapp
!!!YEM: Licence: (CC BY-NC-SA 4.0) https://creativecommons.org/licenses/by-nc-sa/4.0
!!!YER: 2018
!!!ENC: Craig Stuart Sapp
!!!END: 2004/10/26
!!!EED: Craig Stuart Sapp
!!!EEV: 2018/06/20
!!!EFL: 62/69
!!!AGN: piano sonata
!!!AFR: 
!!!title: @{OTL}, @{SCT1}, mvmt. @{OMV}
